X: 1
T: the Stack of Wheat
N: makes a good set played with the Little Stack of Barley
S: http://gradcenter.marlboro.edu/abc/sessionTunesII/Stack_of_Wheat.abc 2009-7-3
R: hornpipe
M: C|
K: G
BA |\
GEDE GABG | (3ABA GA Bdef | gedB GABG | dBAG E2BA | GEDE GABG |
(3ABA GA Bdef | gedB GABG | AGEF G2 :: Bd | edBd edgd | edBd e2 (3def |
gedB GABG | dBAG E2BA | GEDE GABG | (3ABA GA Bdef | gedB GABG | AGEF G2 :|
